X: 1
T: The Fair Wind
R: reel
M: 4/4
L: 1/8
K: Amaj
|: A3E A3B | cBAB cBBc | A3E A2AB |1 cBAF FEEE :|2 cBAF FEE2 ||
|: ceec A3B | c2ec dBBd | ceec A2AB |1 cABF FEEd :|2 cBAF FEE2 ||
|: AFFF d3B | cBAB cBBc |1 AFFF d2dB | cBAF FEE2 :|2 ce3 f2ec | BdcA BAFE ||


Tune 936	Setting 23466

